;FLAVOR:Marlin
;TIME:6452
;Filament used: 6.45903m
;Layer height: 0.28
;MINX:83.7
;MINY:84.2
;MINZ:0.28
;MAXX:136.3
;MAXY:136.8
;MAXZ:44.8
;Generated with Creality Slicer 4.8.2-96
M140 S60
M105
M190 S60
M104 S200
M105
M109 S200
M82 ;absolute extrusion mode

G28 ;Home

G92 E0 ;Reset Extruder
G1 Z2.0 F3000 ;Move Z Axis up
G1 X10.1 Y20 Z0.28 F5000.0 ;Move to start position
G1 X10.1 Y200.0 Z0.28 F1500.0 E15 ;Draw the first line
G1 X10.4 Y200.0 Z0.28 F5000.0 ;Move to side a little
G1 X10.4 Y20 Z0.28 F1500.0 E30 ;Draw the second line
G92 E0 ;Reset Extruder
G1 Z2.0 F3000 ;Move Z Axis up

G92 E0
G92 E0
G1 F3600 E-5
;LAYER_COUNT:160
;LAYER:0
M107
G0 F6000 X86.123 Y86.349 Z0.28
;TYPE:SKIRT
G1 F3600 E0
G1 F1200 X86.722 Y85.834 E0.03678
G1 X87.37 Y85.383 E0.07355
G1 X88.061 Y84.999 E0.11036
G1 X88.786 Y84.687 E0.14711
G1 X89.539 Y84.45 E0.18387
G1 X90.313 Y84.291 E0.22066
G1 X91.098 Y84.21 E0.25741
G1 X91.5 Y84.2 E0.27613
G1 X128.5 Y84.2 E1.99901
G1 X129.289 Y84.24 E2.03579
G1 X130.069 Y84.359 E2.07253
G1 X130.834 Y84.557 E2.10933
G1 X131.574 Y84.831 E2.14607
G1 X132.283 Y85.179 E2.18285
G1 X132.954 Y85.597 E2.21966
G1 X133.578 Y86.08 E2.2564
G1 X134.151 Y86.623 E2.29316
G1 X134.666 Y87.222 E2.32995
G1 X135.117 Y87.87 E2.36671
G1 X135.501 Y88.561 E2.40352
G1 X135.813 Y89.286 E2.44027
G1 X136.05 Y90.039 E2.47703
G1 X136.209 Y90.813 E2.51382
G1 X136.29 Y91.598 E2.55057
G1 X136.3 Y92 E2.56929
G1 X136.3 Y129 E4.29217
G1 X136.26 Y129.789 E4.32896
G1 X136.141 Y130.569 E4.3657
G1 X135.943 Y131.334 E4.40249
G1 X135.669 Y132.074 E4.43923
G1 X135.321 Y132.783 E4.47601
G1 X134.903 Y133.454 E4.51282
G1 X134.42 Y134.078 E4.54957
G1 X133.877 Y134.651 E4.58632
G1 X133.278 Y135.166 E4.62311
G1 X132.63 Y135.617 E4.65987
G1 X131.939 Y136.001 E4.69668
G1 X131.214 Y136.313 E4.73343
G1 X130.461 Y136.55 E4.77019
G1 X129.687 Y136.709 E4.80698
G1 X128.902 Y136.79 E4.84373
G1 X128.5 Y136.8 E4.86246
G1 X91.5 Y136.8 E6.58533
G1 X90.711 Y136.76 E6.62212
G1 X89.931 Y136.641 E6.65886
G1 X89.166 Y136.443 E6.69565
G1 X88.426 Y136.169 E6.7324
G1 X87.717 Y135.821 E6.76917
G1 X87.046 Y135.403 E6.80598
G1 X86.422 Y134.92 E6.84273
G1 X85.849 Y134.377 E6.87949
G1 X85.334 Y133.778 E6.91627
G1 X84.883 Y133.13 E6.95303
G1 X84.499 Y132.439 E6.98984
G1 X84.187 Y131.714 E7.0266
G1 X83.95 Y130.961 E7.06335
G1 X83.791 Y130.187 E7.10015
G1 X83.71 Y129.402 E7.13689
G1 X83.7 Y129 E7.15562
G1 X83.7 Y92 E8.87849
G1 X83.74 Y91.211 E8.91528
G1 X83.859 Y90.431 E8.95202
G1 X84.057 Y89.666 E8.98882
G1 X84.331 Y88.926 E9.02556
G1 X84.679 Y88.217 E9.06234
G1 X85.097 Y87.546 E9.09915
G1 X85.58 Y86.922 E9.13589
G1 X86.123 Y86.349 E9.17265
G0 F6000 X86.516 Y86.53
G1 F1200 X87.111 Y86.042 E9.20848
G1 X87.753 Y85.619 E9.24428
G1 X88.436 Y85.264 E9.28012
G1 X89.151 Y84.983 E9.3159
G1 X89.893 Y84.777 E9.35175
G1 X90.651 Y84.649 E9.38755
G1 X91.5 Y84.6 E9.42715
G1 X128.5 Y84.6 E11.15002
G1 X129.268 Y84.64 E11.18583
G1 X130.028 Y84.759 E11.22165
G1 X130.771 Y84.957 E11.25746
G1 X131.49 Y85.231 E11.29329
G1 X132.176 Y85.578 E11.32908
G1 X132.823 Y85.994 E11.3649
G1 X133.423 Y86.475 E11.40071
G1 X133.97 Y87.016 E11.43653
G1 X134.458 Y87.611 E11.47236
G1 X134.881 Y88.253 E11.50816
G1 X135.236 Y88.936 E11.54401
G1 X135.517 Y89.651 E11.57978
G1 X135.723 Y90.393 E11.61564
G1 X135.851 Y91.151 E11.65143
G1 X135.9 Y92 E11.69103
G1 X135.9 Y129 E13.4139
G1 X135.86 Y129.768 E13.44971
G1 X135.741 Y130.528 E13.48553
G1 X135.543 Y131.271 E13.52134
G1 X135.269 Y131.99 E13.55717
G1 X134.922 Y132.676 E13.59296
G1 X134.506 Y133.323 E13.62878
G1 X134.025 Y133.923 E13.66459
G1 X133.484 Y134.47 E13.70041
G1 X132.889 Y134.958 E13.73625
G1 X132.247 Y135.381 E13.77205
G1 X131.564 Y135.736 E13.80789
G1 X130.849 Y136.017 E13.84366
G1 X130.107 Y136.223 E13.87952
G1 X129.349 Y136.351 E13.91531
G1 X128.5 Y136.4 E13.95491
G1 X91.5 Y136.4 E15.67779
G1 X90.732 Y136.36 E15.7136
G1 X89.972 Y136.241 E15.74942
G1 X89.229 Y136.043 E15.78522
G1 X88.51 Y135.769 E15.82105
G1 X87.824 Y135.422 E15.85685
G1 X87.177 Y135.006 E15.89266
G1 X86.577 Y134.525 E15.92847
G1 X86.03 Y133.984 E15.9643
G1 X85.542 Y133.389 E16.00013
G1 X85.119 Y132.747 E16.03593
G1 X84.764 Y132.064 E16.07177
G1 X84.483 Y131.349 E16.10754
G1 X84.277 Y130.607 E16.1434
G1 X84.149 Y129.849 E16.1792
G1 X84.1 Y129 E16.21879
G1 X84.1 Y92 E17.94167
G1 X84.14 Y91.232 E17.97748
G1 X84.259 Y90.472 E18.0133
G1 X84.457 Y89.729 E18.0491
G1 X84.731 Y89.01 E18.08493
G1 X85.078 Y88.324 E18.12073
G1 X85.494 Y87.677 E18.15655
G1 X85.975 Y87.077 E18.19235
G1 X86.516 Y86.53 E18.22818
G0 F6000 X86.908 Y86.716
G1 F1200 X87.498 Y86.257 E18.26299
G1 X88.134 Y85.862 E18.29785
G1 X88.808 Y85.538 E18.33267
G1 X89.513 Y85.288 E18.3675
G1 X90.241 Y85.114 E18.40235
G1 X90.983 Y85.019 E18.43719
G1 X91.5 Y85 E18.46128
G1 X128.5 Y85 E20.18415
G1 X129.247 Y85.04 E20.21898
G1 X129.985 Y85.159 E20.25379
G1 X130.707 Y85.357 E20.28865
G1 X131.403 Y85.63 E20.32347
G1 X132.066 Y85.977 E20.35831
G1 X132.689 Y86.392 E20.39317
G1 X133.263 Y86.871 E20.42798
G1 X133.784 Y87.408 E20.46282
G1 X134.243 Y87.998 E20.49763
G1 X134.638 Y88.634 E20.53249
G1 X134.962 Y89.308 E20.56731
G1 X135.212 Y90.013 E20.60214
G1 X135.386 Y90.741 E20.63699
G1 X135.481 Y91.483 E20.67183
G1 X135.5 Y92 E20.69592
G1 X135.5 Y129 E22.41879
G1 X135.46 Y129.747 E22.45362
G1 X135.341 Y130.485 E22.48843
G1 X135.143 Y131.207 E22.52329
G1 X134.87 Y131.903 E22.55811
G1 X134.523 Y132.566 E22.59295
G1 X134.108 Y133.189 E22.62781
G1 X133.629 Y133.763 E22.66262
G1 X133.092 Y134.284 E22.69746
G1 X132.502 Y134.743 E22.73227
G1 X131.866 Y135.138 E22.76713
G1 X131.192 Y135.462 E22.80195
G1 X130.487 Y135.712 E22.83678
G1 X129.759 Y135.886 E22.87163
G1 X129.017 Y135.981 E22.90647
G1 X128.5 Y136 E22.93056
G1 X91.5 Y136 E24.65343
G1 X90.753 Y135.96 E24.68826
G1 X90.015 Y135.841 E24.72307
G1 X89.293 Y135.643 E24.75793
G1 X88.597 Y135.37 E24.79275
G1 X87.934 Y135.023 E24.82759
G1 X87.311 Y134.608 E24.86245
G1 X86.737 Y134.129 E24.89726
G1 X86.216 Y133.592 E24.9321
G1 X85.757 Y133.002 E24.96691
G1 X85.362 Y132.366 E25.00177
G1 X85.038 Y131.692 E25.03659
G1 X84.788 Y130.987 E25.07142
G1 X84.614 Y130.259 E25.10627
G1 X84.519 Y129.517 E25.14111
G1 X84.5 Y129 E25.1652
G1 X84.5 Y92 E26.88807
G1 X84.54 Y91.253 E26.92291
G1 X84.659 Y90.515 E26.95771
G1 X84.857 Y89.793 E26.99257
G1 X85.13 Y89.097 E27.02739
G1 X85.477 Y88.434 E27.06223
G1 X85.892 Y87.811 E27.09709
G1 X86.371 Y87.237 E27.1319
G1 X86.908 Y86.716 E27.16674
G0 F6000 X86.765 Y87.402
G1 F1200 X87.299 Y86.909 E27.20058
G1 X87.884 Y86.479 E27.23439
G1 X88.513 Y86.115 E27.26823
G1 X89.178 Y85.822 E27.30207
G1 X89.871 Y85.604 E27.33589
G1 X90.583 Y85.464 E27.36968
G1 X91.5 Y85.4 E27.41249
G1 X128.5 Y85.4 E29.13536
G1 X129.225 Y85.44 E29.16917
G1 X129.942 Y85.559 E29.20301
G1 X130.641 Y85.757 E29.23684
G1 X131.314 Y86.03 E29.27066
G1 X131.953 Y86.375 E29.30447
G1 X132.55 Y86.789 E29.3383
G1 X133.098 Y87.265 E29.3721
G1 X133.591 Y87.799 E29.40594
G1 X134.021 Y88.384 E29.43975
G1 X134.385 Y89.013 E29.47359
G1 X134.678 Y89.678 E29.50743
G1 X134.896 Y90.371 E29.54126
G1 X135.036 Y91.083 E29.57505
G1 X135.1 Y92 E29.61785
G1 X135.1 Y129 E31.34072
G1 X135.06 Y129.725 E31.37453
G1 X134.941 Y130.442 E31.40838
G1 X134.743 Y131.141 E31.44221
G1 X134.47 Y131.814 E31.47602
G1 X134.125 Y132.453 E31.50984
G1 X133.711 Y133.05 E31.54367
G1 X133.235 Y133.598 E31.57747
G1 X132.701 Y134.091 E31.61131
G1 X132.116 Y134.521 E31.64512
G1 X131.487 Y134.885 E31.67896
G1 X130.822 Y135.178 E31.71279
G1 X130.129 Y135.396 E31.74662
G1 X129.417 Y135.536 E31.78041
G1 X128.5 Y135.6 E31.82321
G1 X91.5 Y135.6 E33.54609
G1 X90.775 Y135.56 E33.5799
G1 X90.058 Y135.441 E33.61374
G1 X89.359 Y135.243 E33.64757
G1 X88.686 Y134.97 E33.68139
G1 X88.047 Y134.625 E33.7152
G1 X87.45 Y134.211 E33.74903
G1 X86.902 Y133.735 E33.78283
G1 X86.409 Y133.201 E33.81667
G1 X85.979 Y132.616 E33.85048
G1 X85.615 Y131.987 E33.88432
G1 X85.322 Y131.322 E33.91816
G1 X85.104 Y130.629 E33.95198
G1 X84.964 Y129.917 E33.98577
G1 X84.9 Y129 E34.02858
G1 X84.9 Y92 E35.75145
G1 X84.94 Y91.275 E35.78526
G1 X85.059 Y90.558 E35.81911
G1 X85.257 Y89.859 E35.85293
G1 X85.53 Y89.186 E35.88675
G1 X85.875 Y88.547 E35.92057
G1 X86.289 Y87.95 E35.9544
G1 X86.765 Y87.402 E35.98819
G0 F6000 X87.159 Y87.573
G1 F1200 X87.689 Y87.109 E36.02099
G1 X88.268 Y86.709 E36.05376
G1 X88.889 Y86.377 E36.08655
G1 X89.543 Y86.117 E36.11932
G1 X90.223 Y85.933 E36.15213
G1 X90.919 Y85.827 E36.18491
G1 X91.5 Y85.8 E36.21199
G1 X128.5 Y85.8 E37.93487
G1 X129.203 Y85.84 E37.96765
G1 X129.897 Y85.959 E38.00044
G1 X130.572 Y86.157 E38.0332
G1 X131.221 Y86.429 E38.06596
G1 X131.835 Y86.774 E38.09876
G1 X132.406 Y87.185 E38.13152
G1 X132.927 Y87.659 E38.16432
G1 X133.391 Y88.189 E38.19712
G1 X133.791 Y88.768 E38.22988
G1 X134.123 Y89.389 E38.26267
G1 X134.383 Y90.043 E38.29545
G1 X134.567 Y90.723 E38.32825
G1 X134.673 Y91.419 E38.36103
G1 X134.7 Y92 E38.38811
G1 X134.7 Y129 E40.11099
G1 X134.66 Y129.703 E40.14378
G1 X134.541 Y130.397 E40.17656
G1 X134.343 Y131.072 E40.20932
G1 X134.071 Y131.721 E40.24209
G1 X133.726 Y132.335 E40.27488
G1 X133.315 Y132.906 E40.30764
G1 X132.841 Y133.427 E40.34044
G1 X132.311 Y133.891 E40.37324
G1 X131.732 Y134.291 E40.40601
G1 X131.111 Y134.623 E40.4388
G1 X130.457 Y134.883 E40.47157
G1 X129.777 Y135.067 E40.50437
G1 X129.081 Y135.173 E40.53715
G1 X128.5 Y135.2 E40.56423
G1 X91.5 Y135.2 E42.28711
G1 X90.797 Y135.16 E42.3199
G1 X90.103 Y135.041 E42.35268
G1 X89.428 Y134.843 E42.38544
G1 X88.779 Y134.571 E42.41821
G1 X88.165 Y134.226 E42.451
G1 X87.594 Y133.815 E42.48376
G1 X87.073 Y133.341 E42.51656
G1 X86.609 Y132.811 E42.54936
G1 X86.209 Y132.232 E42.58213
G1 X85.877 Y131.611 E42.61492
G1 X85.617 Y130.957 E42.64769
G1 X85.433 Y130.277 E42.68049
G1 X85.327 Y129.581 E42.71327
G1 X85.3 Y129 E42.74036
G1 X85.3 Y92 E44.46323
G1 X85.34 Y91.297 E44.49602
G1 X85.459 Y90.603 E44.52881
G1 X85.657 Y89.928 E44.56156
G1 X85.929 Y89.279 E44.59433
G1 X86.274 Y88.665 E44.62712
G1 X86.685 Y88.094 E44.65988
G1 X87.159 Y87.573 E44.69268
G0 F6000 X87.553 Y87.751
G1 F1200 X88.078 Y87.317 E44.7244
G1 X88.65 Y86.948 E44.75609
G1 X89.262 Y86.649 E44.78781
G1 X89.904 Y86.424 E44.81949
G1 X90.569 Y86.275 E44.85122
G1 X91.5 Y86.2 E44.89471
G1 X128.5 Y86.2 E46.61759
G1 X129.18 Y86.24 E46.6493
G1 X129.85 Y86.359 E46.68099
G1 X130.502 Y86.556 E46.71271
G1 X131.126 Y86.828 E46.7444
G1 X131.714 Y87.172 E46.77612
G1 X132.258 Y87.582 E46.80784
G1 X132.749 Y88.053 E46.83953
G1 X133.183 Y88.578 E46.87124
G1 X133.552 Y89.15 E46.90294
G1 X133.851 Y89.762 E46.93466
G1 X134.076 Y90.404 E46.96633
G1 X134.225 Y91.069 E46.99807
G1 X134.3 Y92 E47.04156
G1 X134.3 Y129 E48.76443
G1 X134.26 Y129.68 E48.79615
G1 X134.141 Y130.35 E48.82784
G1 X133.944 Y131.002 E48.85955
G1 X133.672 Y131.626 E48.89125
G1 X133.328 Y132.214 E48.92297
G1 X132.918 Y132.758 E48.95469
G1 X132.447 Y133.249 E48.98637
G1 X131.922 Y133.683 E49.01809
G1 X131.35 Y134.052 E49.04978
G1 X130.738 Y134.351 E49.0815
G1 X130.096 Y134.576 E49.11318
G1 X129.431 Y134.725 E49.14491
G1 X128.5 Y134.8 E49.1884
G1 X91.5 Y134.8 E50.91128
G1 X90.82 Y134.76 E50.943
G1 X90.15 Y134.641 E50.97468
G1 X89.498 Y134.444 E51.0064
G1 X88.874 Y134.172 E51.03809
G1 X88.286 Y133.828 E51.06982
G1 X87.742 Y133.418 E51.10154
G1 X87.251 Y132.947 E51.13322
G1 X86.817 Y132.422 E51.16493
G1 X86.448 Y131.85 E51.19663
G1 X86.149 Y131.238 E51.22835
G1 X85.924 Y130.596 E51.26002
G1 X85.775 Y129.931 E51.29176
G1 X85.7 Y129 E51.33525
G1 X85.7 Y92 E53.05812
G1 X85.74 Y91.32 E53.08984
G1 X85.859 Y90.65 E53.12153
G1 X86.056 Y89.998 E53.15324
G1 X86.328 Y89.374 E53.18494
G1 X86.672 Y88.786 E53.21666
G1 X87.082 Y88.242 E53.24838
G1 X87.553 Y87.751 E53.28006
G0 F6000 X87.945 Y87.935
G1 F1200 X88.465 Y87.534 E53.31064
G1 X89.029 Y87.198 E53.34121
G1 X89.631 Y86.934 E53.37182
G1 X90.26 Y86.744 E53.40241
G1 X90.907 Y86.633 E53.43298
G1 X91.5 Y86.6 E53.46064
G1 X128.5 Y86.6 E55.18351
G1 X129.156 Y86.64 E55.21411
G1 X129.802 Y86.759 E55.2447
G1 X130.429 Y86.956 E55.2753
G1 X131.027 Y87.228 E55.30589
G1 X131.588 Y87.57 E55.33649
G1 X132.103 Y87.978 E55.36708
G1 X132.565 Y88.445 E55.39767
G1 X132.966 Y88.965 E55.42825
G1 X133.302 Y89.529 E55.45882
G1 X133.566 Y90.131 E55.48942
G1 X133.756 Y90.76 E55.52002
G1 X133.867 Y91.407 E55.55059
G1 X133.9 Y92 E55.57824
G1 X133.9 Y129 E57.30112
G1 X133.86 Y129.656 E57.33172
G1 X133.741 Y130.302 E57.36231
G1 X133.544 Y130.929 E57.39291
G1 X133.272 Y131.527 E57.4235
G1 X132.93 Y132.088 E57.45409
G1 X132.522 Y132.603 E57.48469
G1 X132.055 Y133.065 E57.51528
G1 X131.535 Y133.466 E57.54585
G1 X130.971 Y133.802 E57.57642
G1 X130.369 Y134.066 E57.60703
G1 X129.74 Y134.256 E57.63763
G1 X129.093 Y134.367 E57.6682
G1 X128.5 Y134.4 E57.69585
G1 X91.5 Y134.4 E59.41873
G1 X90.844 Y134.36 E59.44933
G1 X90.198 Y134.241 E59.47992
G1 X89.571 Y134.044 E59.51052
G1 X88.973 Y133.772 E59.54111
G1 X88.412 Y133.43 E59.5717
G1 X87.897 Y133.022 E59.6023
G1 X87.435 Y132.555 E59.63289
G1 X87.034 Y132.035 E59.66346
G1 X86.698 Y131.471 E59.69403
G1 X86.434 Y130.869 E59.72464
G1 X86.244 Y130.24 E59.75524
G1 X86.133 Y129.593 E59.7858
G1 X86.1 Y129 E59.81346
G1 X86.1 Y92 E61.53633
G1 X86.14 Y91.344 E61.56694
G1 X86.259 Y90.698 E61.59752
G1 X86.456 Y90.071 E61.62813
G1 X86.728 Y89.473 E61.65872
G1 X87.07 Y88.912 E61.68931
G1 X87.478 Y88.397 E61.7199
G1 X87.945 Y87.935 E61.75049
G0 F6000 X87.873 Y88.559
G1 F1200 X88.336 Y88.129 E61.77992
G1 X88.85 Y87.76 E61.80938
G1 X89.406 Y87.46 E61.8388
G1 X89.995 Y87.232 E61.86821
G1 X90.609 Y87.08 E61.89766
G1 X91.5 Y87 E61.93932
G1 X128.5 Y87 E63.66219
G1 X129.131 Y87.04 E63.69163
G1 X129.752 Y87.159 E63.72107
G1 X130.352 Y87.356 E63.75048
G1 X130.924 Y87.627 E63.77995
G1 X131.456 Y87.967 E63.80935
G1 X131.941 Y88.373 E63.8388
G1 X132.371 Y88.836 E63.86823
G1 X132.74 Y89.35 E63.89769
G1 X133.04 Y89.906 E63.92711
G1 X133.268 Y90.495 E63.95652
G1 X133.42 Y91.109 E63.98597
G1 X133.5 Y92 E64.02763
G1 X133.5 Y129 E65.7505
G1 X133.46 Y129.631 E65.77994
G1 X133.341 Y130.252 E65.80938
G1 X133.144 Y130.852 E65.83879
G1 X132.873 Y131.424 E65.86826
G1 X132.533 Y131.956 E65.89766
G1 X132.127 Y132.441 E65.92711
G1 X131.664 Y132.871 E65.95654
G1 X131.15 Y133.24 E65.986
G1 X130.594 Y133.54 E66.01542
G1 X130.005 Y133.768 E66.04483
G1 X129.391 Y133.92 E66.07428
G1 X128.5 Y134 E66.11594
G1 X91.5 Y134 E67.83881
G1 X90.869 Y133.96 E67.86825
G1 X90.248 Y133.841 E67.89769
G1 X89.648 Y133.644 E67.9271
G1 X89.076 Y133.373 E67.95657
G1 X88.544 Y133.033 E67.98597
G1 X88.059 Y132.627 E68.01542
G1 X87.629 Y132.164 E68.04485
G1 X87.26 Y131.65 E68.07431
G1 X86.96 Y131.094 E68.10373
G1 X86.732 Y130.505 E68.13314
G1 X86.58 Y129.891 E68.16259
G1 X86.5 Y129 E68.20425
G1 X86.5 Y92 E69.92712
G1 X86.54 Y91.369 E69.95656
G1 X86.659 Y90.748 E69.986
G1 X86.856 Y90.148 E70.01541
G1 X87.127 Y89.576 E70.04488
G1 X87.467 Y89.044 E70.07428
G1 X87.873 Y88.559 E70.10373
G0 F6000 X88.267 Y88.728
G1 F1200 X88.725 Y88.331 E70.13196
G1 X89.232 Y87.998 E70.1602
G1 X89.778 Y87.734 E70.18844
G1 X90.354 Y87.545 E70.21667
G1 X90.95 Y87.433 E70.24491
G1 X91.5 Y87.4 E70.27057
G1 X128.5 Y87.4 E71.99344
G1 X129.105 Y87.44 E72.02167
G1 X129.699 Y87.559 E72.04988
G1 X130.273 Y87.755 E72.07812
G1 X130.816 Y88.026 E72.10638
G1 X131.319 Y88.365 E72.13463
G1 X131.772 Y88.767 E72.16283
G1 X132.169 Y89.225 E72.19105
G1 X132.502 Y89.732 E72.2193
G1 X132.766 Y90.278 E72.24754
G1 X132.955 Y90.854 E72.27577
G1 X133.067 Y91.45 E72.304
G1 X133.1 Y92 E72.32966
G1 X133.1 Y129 E74.05253
G1 X133.06 Y129.605 E74.08077
G1 X132.941 Y130.199 E74.10898
G1 X132.745 Y130.773 E74.13722
G1 X132.474 Y131.316 E74.16548
G1 X132.135 Y131.819 E74.19372
G1 X131.733 Y132.272 E74.22192
G1 X131.275 Y132.669 E74.25015
G1 X130.768 Y133.002 E74.27839
G1 X130.222 Y133.266 E74.30663
G1 X129.646 Y133.455 E74.33486
G1 X129.05 Y133.567 E74.3631
G1 X128.5 Y133.6 E74.38875
G1 X91.5 Y133.6 E76.11163
G1 X90.895 Y133.56 E76.13986
G1 X90.301 Y133.441 E76.16807
G1 X89.727 Y133.245 E76.19631
G1 X89.184 Y132.974 E76.22457
G1 X88.681 Y132.635 E76.25282
G1 X88.228 Y132.233 E76.28102
G1 X87.831 Y131.775 E76.30924
G1 X87.498 Y131.268 E76.33749
